#src/img/common/menu.svg

<svg width="24" height="24" viewBox="0 0 24 24" fill="none" xmlns="http://www.w3.org/2000/svg">
  <g opacity="0.54">
    <path d="M5.90991 5.90991H20.9099" stroke="#202020" stroke-width="2" stroke-miterlimit="10"/>
    <path d="M1.90991 5.90991H3.90991" stroke="#202020" stroke-width="2" stroke-miterlimit="10"/>
    <path d="M5.90991 9.90991H20.9099" stroke="#202020" stroke-width="2" stroke-miterlimit="10"/>
    <path d="M1.90991 9.90991H3.90991" stroke="#202020" stroke-width="2" stroke-miterlimit="10"/>
    <path d="M5.90991 13.9099H20.9099" stroke="#202020" stroke-width="2" stroke-miterlimit="10"/>
    <path d="M1.90991 13.9099H3.90991" stroke="#202020" stroke-width="2" stroke-miterlimit="10"/>
    <path d="M5.90991 17.9099H14.9099" stroke="#202020" stroke-width="2" stroke-miterlimit="10"/>
    <path d="M1.90991 17.9099H3.90991" stroke="#202020" stroke-width="2" stroke-miterlimit="10"/>
  </g>
</svg>

<svg width="24" height="24" fill="none" xmlns="http://www.w3.org/2000/svg"><path d="M5.91 5.91h15m-19 0h2m2 4h15m-19 0h2m2 4h15m-19 0h2m2 4h9m-13 0h2" opacity=".54" stroke="#202020" stroke-width="2" stroke-miterlimit="10"/></svg>
